X:1
T:Let Beauty Awake
T:II. Let Beauty Awake
T:Songs of Travel
T:Ralph Vaughan Williams
T:R.L. Stevenson
C:Ralph Vaughan Williams
Z:R.L. Tvenson
%%score 1 { ( 2 5 ) | ( 3 4 ) }
L:1/8
Q:1/4=70
M:9/8
K:E
V:1 treble nm="Voice"
V:2 treble nm="Piano"
V:5 treble 
V:3 bass 
V:4 bass 
V:1
"^Moderato" z9 | z z!f! (F F F3/2 G/ A3- | A G F A2 A A3/2 G/ F | G3) (G3/2 A/ B G2 F | %4
w: |Let Beau- ty a- wake|_ in the morn from beau- ti- ful|dreams, Beau- ty a- wake from|
 E3) z z!f! (G G e d | c3- c2) (G (cB) G | B3- (B) G G G e d |[M:6/8] c2 G!>(! c B G | %8
w: rest! Let Beau- ty a-|wake _ For Beau- * ty's|sake _ In the hour when the|birds a- wake in the|
[M:9/8] E6)!>)!!p! (2:3:2(F F |!<(! (2:3:2G B c3-!<)!!>(! c B!>)! G | F6) z2 z |[Q:1/4=62]"^T" z9 | %12
w: brake And the|stars are bright _ in the|west!||
 z9 | z9 | z z"_tranquillo" (F!p! F F3/2 G/ A3- | A G F A2 A/ A/ A3/2 G/ F | %16
w: ||Let Beau- ty a- wake|_ in the eve from the slum- ber of|
 G2) (G G3/2 A/ B G2 F | E3) z!mp! (G G (2:3:2e d | c3- c2) (G/ G/ (cB) G | B3- B) (G G G e d | %20
w: day, A- wake in the crim- son|eve! In the day's dusk|end _ When the sha- des as-|cend, _ Let her wake to the|
[M:6/8] c2 G/ G/ (cB) G |[M:9/8] E6) (F3 | G3/2 B/ B c3- c B G | F6) z2 z | z9 | z9 | z9 | %27
w: kiss of a ten- * der|friend, To|ren- der a- gain _ and re-|ceive!||||
[Q:1/4=55]"^T" z8 | z9 |] %29
w: ||
V:2
 x2 x[I:staff +1] F,/4C/4F/4[I:staff -1]A/4c/4f/4a/4f/4c/4A/4[I:staff +1]F/4C/4 F,/4C/4F/4[I:staff -1]A/4c/4f/4a/4f/4c/4A/4[I:staff +1]F/4C/4 | %1
!f![I:staff -1] x9 | x9 | x4 x2[I:staff +1] A,,/4C,/4E,/4A,/4[I:staff -1]A/4c/4e/4g/4 [Adf] | %4
[I:staff +1] (2:3:8(E,/4G,/4!courtesy!=B,/4E/4[I:staff -1]G/4!courtesy!=B/4e/4g/4)[I:staff +1] (2:3:8(E,/4G,/4B,/4!<(!E/4[I:staff -1]G/4B/4e/4!<)!g/4)!f! ([eg][ge'][fd'] | %5
 [ec']3- [ec']2 [eg] [ec'][db][Bg] | [Bdgb]3-) [Bdgb]2 [Bg] ([eg][ge'][fd'] | %7
[M:6/8] [ec']2 [Bg]!>(! [ec'][db][Bg]) |[M:9/8] [Ee]6!>)!!p! [Aef]3 | %9
!<(! (2:3:2[Beg][egb] ([egc']3-!<)!!>(! [egc'][egb]!>)![Beg]) | %10
 [Acf]6!<(! (2:3:2!tenuto![eg]!tenuto![gb]!<)! | %11
"_poco rall." ([ac']3- [ac'][gb][eg])!>(! [Af]3-!>)! | %12
 [Af]3!pp!!<(! (2:3:2!tenuto![EG](!tenuto![GB] [Ac]3-!<)! |!>(! [Ac][GB][EG])!>)! x6 | x9 | x9 | %16
 x9 | x9!mp! | [Ec]3- [Ec]2 [EG] [Ec][DB][B,G] | [DB]3- [DB]2 [B,G] [EG][Ge][Fd] | %20
[M:6/8] [Ec]2 [B,G]!>(! [Ec][DB][B,G]!>)! |[M:9/8] E6 [A,EF]3 | %22
 (2:3:2([B,EG]!<(![EGB] [EGc]3-!<)!!>(! [EGc][EGB][B,EG]!>)! | %23
 [A,CF]6)!p!!<(! (2:3:2([eg]!<)![gb] | [ac']3- [ac'][gb][eg] [Acf]3-) | %25
"^dim." [Acf]3!pp! (2:3:2([EG][GB] [Ac]3- | [Ac][GB][EG] [A,CF]6) |!ppp! x8 | f'6 z2 z |] %29
V:3
!f! F,/4C/4F/4[I:staff -1]A/4c/4f/4a/4f/4c/4A/4[I:staff +1]F/4C/4 x4 x2 | %1
 (F,/4C/4F/4[I:staff -1]A/4c/4f/4a/4f/4c/4A/4[I:staff +1]F/4C/4 F,/4C/4F/4[I:staff -1]A/4c/4f/4a/4f/4c/4A/4[I:staff +1]F/4C/4 F,/4C/4F/4[I:staff -1]A/4c/4f/4a/4f/4c/4A/4[I:staff +1]F/4C/4) | %2
 (E,/4A,/4C/4[I:staff -1]A/4c/4f/4a/4f/4c/4A/4[I:staff +1]C/4A,/4 E,/4A,/4C/4[I:staff -1]A/4c/4f/4a/4f/4c/4A/4[I:staff +1]C/4A,/4 E,/4A,/4C/4[I:staff -1]A/4c/4f/4a/4f/4c/4A/4[I:staff +1]C/4A,/4) | %3
 D,/4F,/4^B,/4[I:staff -1]F/4^B/4d/4g/4d/4B/4F/4[I:staff +1]B,/4F,/4 C,/4G,/4C/4[I:staff -1]G/4c/4e/4g/4e/4c/4G/4[I:staff +1]C/4A,/4 A,,2 [^B,,F,B,] | %4
 E,3 D,3 (C,/G,/C/E/C/G,/ | C,/G,/C/E/C/G,/ C,/G,/C/E/C/G,/ C,/G,/C/E/C/G,/) | %6
 (G,,/D,/G,/B,/G,/D,/ G,,/D,/G,/B,/G,/D,/) (C,/G,/C/E/C/G,/ | %7
[M:6/8] C,/G,/C/E/C/G,/ C,/G,/C/E/C/G,/) | %8
[M:9/8] !///-![C,E,]3/2 B,3/2 !///-![C,E,]3/2 A,3/2 !///-![C,E,]3/2 A,3/2 | %9
 !///-![B,,E,]3/2 G,3/2 (G,,/B,,/E,/G,/E,/B,,/ G,,/B,,/E,/G,/E,/B,,/ | %10
 F,,/C,/F,/A,/F,/C,/ F,,/C,/F,/A,/F,/C,/) (F,,/C,/F,/A,/F,/C,/ | %11
 F,,/C,/F,/A,/F,/C,/ F,,/C,/F,/A,/F,/C,/ F,,/C,/F,/A,/F,/C,/ | %12
 F,,/C,/F,/A,/F,/C,/) (F,,/C,/F,/A,/F,/C,/ F,,/C,/F,/A,/F,/C,/ | %13
 F,,/C,/F,/A,/F,/C,/)!p! (2:3:8(F,,/4C,/4F,/4[I:staff -1]A,/4C/4F/4G/4A/4)[I:staff +1] (2:3:8(F,,/4C,/4F,/4[I:staff -1]A,/4C/4F/4G/4A/4) | %14
[I:staff +1] (2:3:8(F,,/4C,/4F,/4[I:staff -1]A,/4C/4F/4G/4A/4)[I:staff +1] (2:3:8(F,,/4C,/4F,/4[I:staff -1]A,/4C/4F/4G/4A/4)[I:staff +1] (2:3:8(F,,/4C,/4F,/4[I:staff -1]A,/4C/4F/4G/4A/4) | %15
[I:staff +1] (2:3:8(E,,/4A,,/4C,/4[I:staff -1]A,/4C/4F/4G/4A/4)[I:staff +1] (2:3:8(E,,/4A,,/4C,/4[I:staff -1]A,/4C/4F/4G/4A/4)[I:staff +1] (2:3:8(E,,/4A,,/4C,/4[I:staff -1]A,/4C/4F/4G/4A/4) | %16
[I:staff +1] (2:3:8(E,,/4G,,/4^B,,/4D,/4[I:staff -1]F,/4^B,/4D/4G/4)[I:staff +1] (2:3:8(E,,/4G,,/4C,/4E,/4[I:staff -1]G,/4C/4E/4G/4)[I:staff +1] (A,,/4D,/4E,/4G,/4[I:staff -1]A,/4C/4E/4G/4) [A,DF] | %17
[I:staff +1] (2:3:8(E,,/4!courtesy!=B,,/4E,/4[I:staff -1]G,/4!courtesy!=B,/4E/4F/4G/4)[I:staff +1] (2:3:8(D,,/4B,,/4E,/4[I:staff -1]G,/4B,/4E/4F/4G/4) [EG][Ge][Fd] | %18
[I:staff +1] !///-!C,,3 G,,3 !///-!C,,3/2 G,,3/2 | !///-!G,,3 D,3 !///-!C,,3/2 G,,3/2 | %20
[M:6/8] !///-!C,,3 G,,3 |[M:9/8] !///-!C,3 E,3 !///-!C,3/2 E,3/2 | %22
 !///-![B,,E,]3/2 G,3/2 !///-![G,,B,,]3 E,3 | %23
 (F,,/C,/F,/A,/F,/C,/ F,,/C,/F,/A,/F,/C,/ F,,/C,/F,/A,/F,/C,/ | %24
 F,,/C,/F,/A,/F,/C,/ F,,/C,/F,/A,/F,/C,/ F,,/C,/F,/A,/F,/C,/ | %25
 F,,/C,/F,/A,/F,/C,/) (F,,/C,/F,/A,/F,/C,/ F,,/C,/F,/A,/F,/C,/ | %26
 F,,/C,/F,/A,/F,/C,/ F,,/C,/F,/A,/F,/C,/ F,,/C,/F,/A,/F,/C,/) | %27
"_molto rall."!ped! (F,,/C,/F,/[I:staff -1]A,/C/F/[I:staff +1] F,/C/F/[I:staff -1]A/c/f/[I:staff +1][K:treble] (5:4:5(F/c/f/[I:staff -1]a/!>(!c'/)) | %28
[I:staff +1] z9!ped-up!!>)! |] %29
V:4
 F,6 F,3 | F,6 F,3 | E,6 E,3 | D,3 C,3 A,,2 z | z9 | x9 | x9 |[M:6/8] x6 |[M:9/8] x9 | x9 | x9 | %11
 x9 | x9 | x3 F,,6 | F,,6 F,,3 | E,,6 E,,3 | E,,3 E,,3 (A,,2 ^B,,) | %17
 E,,3 D,,3 !///-!C,,3/2 G,,3/2 | x9 | x9 |[M:6/8] x6 |[M:9/8] x9 | x9 | x9 | x9 | x9 | x9 | %27
 x6[K:treble] x2 | x9 |] %29
V:5
 x9 | x9 | x9 | x9 | x9 | x9 | x9 |[M:6/8] x6 |[M:9/8] (B3 A3) x3 | x9 | x9 | x9 | x9 | x9 | x9 | %15
 x9 | x9 | x9 | x9 | x9 |[M:6/8] x6 |[M:9/8] (B,3 A,3) x3 | x9 | x9 | x9 | x9 | x9 | x8 | x9 |] %29

